**harmony	**harte	**kern	**silbe	**rhyme	**timestamp	**phrase
*M4/4	*M4/4	*ICvox	*	*	*	*
*	*	*VRlead	*	*	*	*
*	*	*Hstimme	*	*	*	*
*E:	*E:	*E:	*	*	*E:	*E:
*	*	*M4/4	*	*	*	*
*	*	*clefG2	*	*	*	*
1r;	1r	r;	.	.	0	.
=1	=1	=1	=1	=1	=1	=1
*>Letter>A2	*>Letter>A2	*>Letter>A2	*>Letter>A2	*>Letter>A2	*>Letter>A2	*>Letter>A2
*>Label>Intro	*>Label>Intro	*>Label>Intro	*>Label>Intro	*>Label>Intro	*>Label>Intro	*>Label>Intro
1EM	E:maj	1r	.	.	0.728	newline
=2	=2	=2	=2	=2	=2	=2
2BM	B:maj	1r	.	.	2.463	.
2AM	A:maj	.	.	.	3.33	.
=3	=3	=3	=3	=3	=3	=3
1EM	E:maj	1r	.	.	4.197	.
=4	=4	=4	=4	=4	=4	=4
2BM	B:maj	2r	.	.	5.932	.
2AM	A:maj	4.r	.	.	6.799	.
.	.	8f#	The	.	.	.
=5	=5	=5	=5	=5	=5	=5
*>Letter>A	*>Letter>A	*>Letter>A	*>Letter>A	*>Letter>A	*>Letter>A	*>Letter>A
*>Label>Chorus	*>Label>Chorus	*>Label>Chorus	*>Label>Chorus	*>Label>Chorus	*>Label>Chorus	*>Label>Chorus
1EM	E:maj	4g#	dream	.	7.667	newline
.	.	8g#	po-	.	.	.
.	.	4g#	-lice.	.	.	.
.	.	8g#	they	.	.	.
.	.	8g#	live	.	.	.
.	.	8g#	in-	.	.	.
=6	=6	=6	=6	=6	=6	=6
2BM	B:maj	16g#	-side	.	9.42	.
.	.	16a	_	.	.	.
.	.	8g#	of	.	.	.
.	.	8f#	my	.	.	.
.	.	4e	head.	A	.	.
2AM	A:maj	.	.	.	10.297	.
.	.	8r	.	.	.	.
.	.	8r	.	.	.	.
.	.	8f#	The	.	.	.
=7	=7	=7	=7	=7	=7	=7
1EM	E:maj	4g#	dream	.	11.174	.
.	.	8g#	po-	.	.	.
.	.	4g#	-lice.	.	.	.
.	.	8g#	they	.	.	.
.	.	8g#	come	.	.	.
.	.	8g#	to	.	.	.
=8	=8	=8	=8	=8	=8	=8
2BM	B:maj	16g#	me	.	12.928	.
.	.	16a	_	.	.	.
.	.	8g#	in	.	.	.
.	.	8f#	my	.	.	.
.	.	4e	bed.	A	.	.
2AM	A:maj	.	.	.	13.805	.
.	.	8r	.	.	.	.
.	.	8r	.	.	.	.
.	.	8f#	The	.	.	.
=9	=9	=9	=9	=9	=9	=9
1EM	E:maj	4g#	dream	.	14.682	newline
.	.	8g#	po-	.	.	.
.	.	4g#	-lice.	.	.	.
.	.	8g#	they're	.	.	.
.	.	8g#	co-	.	.	.
.	.	8g#	-ming	.	.	.
=10	=10	=10	=10	=10	=10	=10
2BM	B:maj	16a	to	.	16.444	.
.	.	16g#	_	.	.	.
.	.	8g#	a-	.	.	.
.	.	4f#	-rrest	A	.	.
2AM	A:maj	4e	me.	.	17.325	.
.	.	4e	Oh	.	.	.
=11	=11	=11	=11	=11	=11	=11
1EM	E:maj	2.g#	no.	.	18.207	.
.	.	4r	.	.	.	.
=12	=12	=12	=12	=12	=12	=12
1EM	E:maj	2r	.	.	19.969	.
.	.	8r	.	.	.	.
.	.	8e	You	.	.	.
.	.	8f#	know	.	.	.
.	.	8g#	that	.	.	.
=13	=13	=13	=13	=13	=13	=13
*>Letter>B	*>Letter>B	*>Letter>B	*>Letter>B	*>Letter>B	*>Letter>B	*>Letter>B
*>Label>Verse	*>Label>Verse	*>Label>Verse	*>Label>Verse	*>Label>Verse	*>Label>Verse	*>Label>Verse
2F#m	F#:min	4a	talk	B	21.732	newline
.	.	4r	.	.	.	.
2C#m	C#:min	2g#	is	.	22.615	.
=14	=14	=14	=14	=14	=14	=14
2DM	D:maj	4f#	cheap;	C	23.498	.
.	.	4r	.	.	.	.
2AM	A:maj	4c#	and	.	24.381	.
.	.	4d#	those	.	.	.
=15	=15	=15	=15	=15	=15	=15
2C#m	C#:min	8e	ru-	.	25.264	.
.	.	8d#	-mors	.	.	.
.	.	8c#	ain't	.	.	.
.	.	4d#	nice;	D	.	.
2G#M	G#:maj	.	.	.	26.146	.
.	.	8r	.	.	.	.
.	.	4r	.	.	.	.
=16	=16	=16	=16	=16	=16	=16
4EM	E:maj	2r	.	.	27.029	.
2.BM	B:maj	.	.	.	27.471	.
.	.	8r	.	.	.	.
.	.	8e	And	.	.	.
.	.	8f#	when	.	.	.
.	.	8g#	I	.	.	.
=17	=17	=17	=17	=17	=17	=17
2F#m	F#:min	4.a	fall	B	28.795	newline
.	.	8r	.	.	.	.
2C#m	C#:min	2g#	a-	.	29.676	.
=18	=18	=18	=18	=18	=18	=18
2DM	D:maj	4f#	-sleep.	C	30.557	.
.	.	4r	.	.	.	.
2AM	A:maj	4c#	I	.	31.438	.
.	.	4d#	don't	.	.	.
=19	=19	=19	=19	=19	=19	=19
2C#m	C#:min	8e	think	.	32.318	.
.	.	8d#	I'll	.	.	.
.	.	8c#	sur-	.	.	.
.	.	4d#	-vive	D	.	.
2G#M	G#:maj	.	.	.	33.199	.
.	.	8r	.	.	.	.
.	.	8r	.	.	.	.
.	.	[8e	the	.	.	.
=20	=20	=20	=20	=20	=20	=20
4EM	E:maj	8e]	_	.	34.08	.
.	.	[4.B	night	C	.	.
2.BM	B:maj	.	.	.	34.52	.
.	.	8B]	_	.	.	.
.	.	8r	.	.	.	.
.	.	8r	.	.	.	.
.	.	[8g#	The	.	.	.
=21	=21	=21	=21	=21	=21	=21
4EM	E:maj	8g#]	_	.	35.841	.
.	.	4.f#	night.	C	.	.
2.BM	B:maj	.	.	.	36.282	.
.	.	4r	.	.	.	.
.	.	8e	'Cause	.	.	.
.	.	8e	they're	.	.	.
=22	=22	=22	=22	=22	=22	=22
*>Letter>C	*>Letter>C	*>Letter>C	*>Letter>C	*>Letter>C	*>Letter>C	*>Letter>C
*>Label>Prechorus	*>Label>Prechorus	*>Label>Prechorus	*>Label>Prechorus	*>Label>Prechorus	*>Label>Prechorus	*>Label>Prechorus
1EM	E:maj	8e	wai-	.	37.603	newline
.	.	8e	-ting	.	.	.
.	.	8e	for	.	.	.
.	.	4e	me.	.	.	.
.	.	8r	.	.	.	.
.	.	8r	.	.	.	.
.	.	8e	They're	.	.	.
=23	=23	=23	=23	=23	=23	=23
1EM	E:maj	8f#	loo-	.	39.324	.
.	.	8e	-king	.	.	.
.	.	8d#	for	.	.	.
.	.	4e	me.	.	.	.
.	.	4r	.	.	.	.
.	.	8r	.	.	.	.
=24	=24	=24	=24	=24	=24	=24
1EM	E:maj	4.g#	eve-	.	41.045	.
.	.	4.g#	-ry	.	.	.
.	.	[4g#	sin-	.	.	.
=25	=25	=25	=25	=25	=25	=25
1EM	E:maj	8g#]	_	.	42.766	.
.	.	4.g#	-gle	.	.	.
.	.	4g#	night:	.	.	.
.	.	4g#	they're	.	.	.
=26	=26	=26	=26	=26	=26	=26
2EM	E:maj	2g#	dri-	.	44.487	newline
2DM	D:maj	2f#	-ving	.	45.352	.
=27	=27	=27	=27	=27	=27	=27
2CM	C:maj	2e	me	.	46.218	.
2GM	G:maj/3	2d	in-	.	47.084	.
=28	=28	=28	=28	=28	=28	=28
1AM	A:maj	[1c#	-sane.	E	47.949	.
=29	=29	=29	=29	=29	=29	=29
1AM	A:maj	4c#]	_	.	49.68	.
.	.	4r	.	.	.	.
.	.	4r	.	.	.	.
.	.	4e	Those	.	.	.
=30	=30	=30	=30	=30	=30	=30
2Em	E:min	2g	men	.	51.412	newline
2DM	D:maj	2f#	in-	.	52.279	.
=31	=31	=31	=31	=31	=31	=31
2CM	C:maj	2e	-side	.	53.146	.
2GM	G:maj/3	4d	my	.	54.014	.
.	.	4r	.	.	.	.
=32	=32	=32	=32	=32	=32	=32
1BM	B:maj	[1d#	brain.	E	54.881	.
=33	=33	=33	=33	=33	=33	=33
1BM	B:maj	2d#]	_	.	56.616	.
.	.	4.r	.	.	.	.
.	.	8f#	The	.	.	.
=34	=34	=34	=34	=34	=34	=34
*>Letter>A	*>Letter>A	*>Letter>A	*>Letter>A	*>Letter>A	*>Letter>A	*>Letter>A
*>Label>Chorus	*>Label>Chorus	*>Label>Chorus	*>Label>Chorus	*>Label>Chorus	*>Label>Chorus	*>Label>Chorus
1EM	E:maj	4g#	dream	.	58.351	newline
.	.	8g#	po-	.	.	.
.	.	4g#	-lice.	.	.	.
.	.	8g#	they	.	.	.
.	.	8g#	live	.	.	.
.	.	8g#	in-	.	.	.
=35	=35	=35	=35	=35	=35	=35
2BM	B:maj	16g#	-side	.	60.1	.
.	.	16a	_	.	.	.
.	.	8g#	of	.	.	.
.	.	8f#	my	.	.	.
.	.	4e	head.	A	.	.
2AM	A:maj	.	.	.	60.975	.
.	.	8r	.	.	.	.
.	.	8r	.	.	.	.
.	.	8f#	The	.	.	.
=36	=36	=36	=36	=36	=36	=36
1EM	E:maj	4g#	dream	.	61.85	.
.	.	8g#	po-	.	.	.
.	.	4g#	-lice.	.	.	.
.	.	8g#	they	.	.	.
.	.	8g#	come	.	.	.
.	.	8g#	to	.	.	.
=37	=37	=37	=37	=37	=37	=37
2BM	B:maj	16g#	me	.	63.599	.
.	.	16a	_	.	.	.
.	.	8g#	in	.	.	.
.	.	8f#	my	.	.	.
.	.	4e	bed.	A	.	.
2AM	A:maj	.	.	.	64.474	.
.	.	8r	.	.	.	.
.	.	8r	.	.	.	.
.	.	8f#	The	.	.	.
=38	=38	=38	=38	=38	=38	=38
1EM	E:maj	4g#	dream	.	65.349	newline
.	.	8g#	po-	.	.	.
.	.	4g#	-lice.	.	.	.
.	.	8g#	they're	.	.	.
.	.	8g#	co-	.	.	.
.	.	8g#	-ming	.	.	.
=39	=39	=39	=39	=39	=39	=39
2BM	B:maj	16a	to	.	67.094	.
.	.	16g#	_	.	.	.
.	.	8g#	a-	.	.	.
.	.	4f#	-rrest	A	.	.
2AM	A:maj	4e	me.	.	67.967	.
.	.	4e	Oh	.	.	.
=40	=40	=40	=40	=40	=40	=40
1EM	E:maj	2.g#	no.	.	68.84	.
.	.	4r	.	.	.	.
=41	=41	=41	=41	=41	=41	=41
1EM	E:maj	2r	.	.	70.586	.
.	.	4r	.	.	.	.
.	.	8f#	Well	.	.	.
.	.	8g#	I	.	.	.
=42	=42	=42	=42	=42	=42	=42
*>Letter>B	*>Letter>B	*>Letter>B	*>Letter>B	*>Letter>B	*>Letter>B	*>Letter>B
*>Label>Verse	*>Label>Verse	*>Label>Verse	*>Label>Verse	*>Label>Verse	*>Label>Verse	*>Label>Verse
2F#m	F#:min	4a	can't	.	72.332	newline
.	.	4r	.	.	.	.
2C#m	C#:min	4g#	tell	.	73.209	.
.	.	4r	.	.	.	.
=43	=43	=43	=43	=43	=43	=43
2DM	D:maj	4f#	lies|	.	74.087	.
.	.	4r	.	.	.	.
2AM	A:maj	4c#	'cause	.	74.965	.
.	.	4d#	they're	.	.	.
=44	=44	=44	=44	=44	=44	=44
2C#m	C#:min	8e	liste-	.	75.842	.
.	.	8d#	-ning	.	.	.
.	.	8c#	to	.	.	.
.	.	4d#	me;	C	.	.
2G#M	G#:maj	.	.	.	76.72	.
.	.	8r	.	.	.	.
.	.	4r	.	.	.	.
=45	=45	=45	=45	=45	=45	=45
4EM	E:maj	2r	.	.	77.597	.
2.BM	B:maj	.	.	.	78.036	.
.	.	8r	.	.	.	.
.	.	8e	And	.	.	.
.	.	16f#	when	.	.	.
.	.	8.g#	I	.	.	.
=46	=46	=46	=46	=46	=46	=46
2F#m	F#:min	4a	fall	.	79.352	newline
.	.	4r	.	.	.	.
2C#m	C#:min	4.g#	a-	.	80.221	.
.	.	8r	.	.	.	.
=47	=47	=47	=47	=47	=47	=47
2DM	D:maj	4f#	-sleep:	C	81.09	.
.	.	4r	.	.	.	.
2AM	A:maj	4c#	bet	.	81.96	.
.	.	4d#	they're	.	.	.
=48	=48	=48	=48	=48	=48	=48
2C#m	C#:min	8e	spy-	.	82.829	.
.	.	8d#	-ing	.	.	.
.	.	8c#	on	.	.	.
.	.	4d#	me	C	.	.
2G#M	G#:maj	.	.	.	83.698	.
.	.	8r	.	.	.	.
.	.	8r	.	.	.	.
.	.	[8e	to-	.	.	.
=49	=49	=49	=49	=49	=49	=49
4EM	E:maj	8e]	_	.	84.567	.
.	.	[4.B	-night	.	.	.
2.BM	B:maj	.	.	.	85.002	.
.	.	8B]	_	.	.	.
.	.	8r	.	.	.	.
.	.	8r	.	.	.	.
.	.	[8g#	to-	.	.	.
=50	=50	=50	=50	=50	=50	=50
4EM	E:maj	8g#]	_	.	86.305	.
.	.	4.f#	-night.	.	.	.
2.BM	B:maj	.	.	.	86.74	.
.	.	4r	.	.	.	.
.	.	8e	'Cause	.	.	.
.	.	8e	they're	.	.	.
=51	=51	=51	=51	=51	=51	=51
*>Letter>C	*>Letter>C	*>Letter>C	*>Letter>C	*>Letter>C	*>Letter>C	*>Letter>C
*>Label>Prechorus	*>Label>Prechorus	*>Label>Prechorus	*>Label>Prechorus	*>Label>Prechorus	*>Label>Prechorus	*>Label>Prechorus
1EM	E:maj	8e	wai-	.	88.044	newline
.	.	8e	-ting	.	.	.
.	.	8e	for	.	.	.
.	.	4e	me.	.	.	.
.	.	8r	.	.	.	.
.	.	8r	.	.	.	.
.	.	8e	They're	.	.	.
=52	=52	=52	=52	=52	=52	=52
1EM	E:maj	8f#	loo-	.	89.776	.
.	.	8e	-king	.	.	.
.	.	8d#	for	.	.	.
.	.	4e	me.	.	.	.
.	.	4r	.	.	.	.
.	.	8r	.	.	.	.
=53	=53	=53	=53	=53	=53	=53
1EM	E:maj	4.g#	eve-	.	91.509	.
.	.	4.g#	-ry	.	.	.
.	.	[4g#	sin-	.	.	.
=54	=54	=54	=54	=54	=54	=54
1EM	E:maj	8g#]	_	.	93.242	.
.	.	4.g#	-gle	.	.	.
.	.	4g#	night:	.	.	.
.	.	4g#	they're	.	.	.
=55	=55	=55	=55	=55	=55	=55
2EM	E:maj	2g#	dri-	.	94.974	newline
2DM	D:maj	2f#	-ving	.	95.842	.
=56	=56	=56	=56	=56	=56	=56
2CM	C:maj	2e	me	.	96.709	.
2GM	G:maj/3	2d	in-	.	97.577	.
=57	=57	=57	=57	=57	=57	=57
1AM	A:maj	[1c#	-sane.	E	98.444	.
=58	=58	=58	=58	=58	=58	=58
1AM	A:maj	4c#]	_	.	100.179	.
.	.	4r	.	.	.	.
.	.	4r	.	.	.	.
.	.	4e	Those	.	.	.
=59	=59	=59	=59	=59	=59	=59
2Em	E:min	2g	men	.	101.914	newline
2DM	D:maj	2f#	in-	.	102.793	.
=60	=60	=60	=60	=60	=60	=60
2CM	C:maj	2e	-side	.	103.671	.
2GM	G:maj/3	4d	my	.	104.55	.
.	.	4r	.	.	.	.
=61	=61	=61	=61	=61	=61	=61
1BM	B:maj	[1d#	brain.	E	105.429	.
=62	=62	=62	=62	=62	=62	=62
1BM	B:maj	2d#]	_	.	107.186	.
.	.	2r	.	.	.	.
=63	=63	=63	=63	=63	=63	=63
*>Letter>D	*>Letter>D	*>Letter>D	*>Letter>D	*>Letter>D	*>Letter>D	*>Letter>D
*>Label>Bridge	*>Label>Bridge	*>Label>Bridge	*>Label>Bridge	*>Label>Bridge	*>Label>Bridge	*>Label>Bridge
2Em	E:min	8r	.	.	108.943	newline
.	.	8E	I	F	.	.
.	.	8E	try	F	.	.
.	.	8E	to	.	.	.
2Bm	B:1	8G#	sleep.	G	109.822	.
.	.	8G#	They're	H	.	.
.	.	8F#	wide	.	.	.
.	.	8E	a-	.	.	.
=64	=64	=64	=64	=64	=64	=64
2CM	C:1	8G#	-wake.	H	110.7	.
.	.	8G#	They	H	.	.
.	.	8F#	won't	.	.	.
.	.	8E	let	.	.	.
2GM	G:1	8G#	me	.	111.579	.
.	.	16G#	a-	.	.	.
.	.	8F#	-lone.	I	.	.
.	.	16E	_	.	.	.
.	.	8r	.	.	.	.
=65	=65	=65	=65	=65	=65	=65
2AM	A:maj	8r	.	.	112.457	.
.	.	8A	They	H	.	.
.	.	8A	don't	.	.	.
.	.	8A	get	.	.	.
2Em	E:1	8c#	paid	H	113.336	.
.	.	8c#	to	.	.	.
.	.	8B	take	H	.	.
.	.	8A	va-	H	.	.
=66	=66	=66	=66	=66	=66	=66
2Fd	F:1	8c#	-ca-	H	114.214	.
.	.	8c#	-tions	.	.	.
.	.	8B	or	.	.	.
.	.	8A	let	.	.	.
2CM	C:1	8c#	me	G	115.093	.
.	.	16c#	a-	.	.	.
.	.	8B	-lone	I	.	.
.	.	16A	_	.	.	.
.	.	8r	.	.	.	.
=67	=67	=67	=67	=67	=67	=67
2Em	E:min	8r	.	.	115.971	newline
.	.	8E	They	H	.	.
.	.	8E	spy	F	.	.
.	.	8E	on	.	.	.
2Bm	B:1	8G#	me.	G	116.853	.
.	.	8G#	I	F	.	.
.	.	8F#	try	F	.	.
.	.	8E	to	.	.	.
=68	=68	=68	=68	=68	=68	=68
2CM	C:1	8G#	hide.	F	117.735	.
.	.	8G#	They	H	.	.
.	.	8F#	won't	.	.	.
.	.	8E	let	.	.	.
2GM	G:1	8G#	me	G	118.617	.
.	.	16G#	a-	.	.	.
.	.	8F#	-lone	I	.	.
.	.	16E	_	.	.	.
.	.	8r	.	.	.	.
=69	=69	=69	=69	=69	=69	=69
2AM	A:maj	8r	.	.	119.5	.
.	.	8A	They	H	.	.
.	.	8A	per-	.	.	.
.	.	8A	-se-	.	.	.
2Em	E:1	8c#	-cute	J	120.382	.
.	.	8c#	me.	g	.	.
.	.	8B	They're	.	.	.
.	.	8A	the	.	.	.
=70	=70	=70	=70	=70	=70	=70
2Fd	F:1	8c#	judge	.	121.264	.
.	.	8c#	and	.	.	.
.	.	8B	ju-	(J	.	.
.	.	8A	-ry	g)	.	.
2Em	E:1	8c#	all	.	122.146	.
.	.	16c#	in	.	.	.
.	.	8.B	one.	I	.	.
.	.	8r	.	.	.	.
=71	=71	=71	=71	=71	=71	=71
*>Letter>B	*>Letter>B	*>Letter>B	*>Letter>B	*>Letter>B	*>Letter>B	*>Letter>B
*>Label>Solo	*>Label>Solo	*>Label>Solo	*>Label>Solo	*>Label>Solo	*>Label>Solo	*>Label>Solo
2F#m	F#:min	1r	.	.	123.028	newline
2C#m	C#:min	.	.	.	123.916	.
=72	=72	=72	=72	=72	=72	=72
2DM	D:maj	1r	.	.	124.804	.
2AM	A:maj	.	.	.	125.692	.
=73	=73	=73	=73	=73	=73	=73
2C#m	C#:min	1r	.	.	126.581	.
2G#M	G#:maj	.	.	.	127.469	.
=74	=74	=74	=74	=74	=74	=74
4EM	E:maj	1r	.	.	128.357	.
2.BM	B:maj	.	.	.	128.801	.
=75	=75	=75	=75	=75	=75	=75
2F#m	F#:min	1r	.	.	130.133	newline
2C#m	C#:min	.	.	.	131.005	.
=76	=76	=76	=76	=76	=76	=76
2DM	D:maj	1r	.	.	131.876	.
2AM	A:maj	.	.	.	132.748	.
=77	=77	=77	=77	=77	=77	=77
2C#m	C#:min	1r	.	.	133.619	.
2G#M	G#:maj	.	.	.	134.49	.
=78	=78	=78	=78	=78	=78	=78
4EM	E:maj	1r	.	.	135.362	.
2.BM	B:maj	.	.	.	135.797	.
=79	=79	=79	=79	=79	=79	=79
4EM	E:maj	2.r	.	.	137.105	.
2.BM	B:maj	.	.	.	137.54	.
.	.	8e	'Cause	.	.	.
.	.	8e	they're	.	.	.
=80	=80	=80	=80	=80	=80	=80
*>Letter>C	*>Letter>C	*>Letter>C	*>Letter>C	*>Letter>C	*>Letter>C	*>Letter>C
*>Label>Prechorus	*>Label>Prechorus	*>Label>Prechorus	*>Label>Prechorus	*>Label>Prechorus	*>Label>Prechorus	*>Label>Prechorus
1EM	E:maj	8e	wai-	.	138.847	newline
.	.	8e	-ting	.	.	.
.	.	8e	for	.	.	.
.	.	4e	me.	.	.	.
.	.	8r	.	.	.	.
.	.	8r	.	.	.	.
.	.	8e	They're	.	.	.
=81	=81	=81	=81	=81	=81	=81
1EM	E:maj	8f#	loo-	.	139.195	.
.	.	8e	-king	.	.	.
.	.	8d#	for	.	.	.
.	.	4e	me.	.	.	.
.	.	4r	.	.	.	.
.	.	8r	.	.	.	.
=82	=82	=82	=82	=82	=82	=82
1EM	E:maj	4.g#	eve-	.	141.628	.
.	.	4.g#	-ry	.	.	.
.	.	[4g#	sin-	.	.	.
=83	=83	=83	=83	=83	=83	=83
1EM	E:maj	8g#]	_	.	143.018	.
.	.	4.g#	-gle	.	.	.
.	.	4g#	night:	.	.	.
.	.	4g#	they're	.	.	.
=84	=84	=84	=84	=84	=84	=84
2EM	E:maj	2g#	dri-	.	145.798	newline
2DM	D:maj	2f#	-ving	.	146.675	.
=85	=85	=85	=85	=85	=85	=85
2CM	C:maj	2e	me	.	147.551	.
2GM	G:maj/3	2d	in-	.	148.427	.
=86	=86	=86	=86	=86	=86	=86
1AM	A:maj	[1c#	-sane.	E	149.304	.
=87	=87	=87	=87	=87	=87	=87
1Am	A:min	4c#]	_	.	151.056	.
.	.	4r	.	.	.	.
.	.	4r	.	.	.	.
.	.	4e	Those	.	.	.
=88	=88	=88	=88	=88	=88	=88
2Em	E:min	2g	men	.	152.809	newline
2DM	D:maj	2f#	in-	.	153.68	.
=89	=89	=89	=89	=89	=89	=89
2CM	C:maj	2e	-side	.	154.552	.
2GM	G:maj/3	4d	my	.	155.424	.
.	.	4r	.	.	.	.
=90	=90	=90	=90	=90	=90	=90
*>Letter>E	*>Letter>E	*>Letter>E	*>Letter>E	*>Letter>E	*>Letter>E	*>Letter>E
*>Label>Interlude	*>Label>Interlude	*>Label>Interlude	*>Label>Interlude	*>Label>Interlude	*>Label>Interlude	*>Label>Interlude
1BM	B:maj	[1d#	brain.	E	156.296	newline
=91	=91	=91	=91	=91	=91	=91
1Em	E:min/5	1d#_	_	.	158.021	.
=92	=92	=92	=92	=92	=92	=92
1Fd	F:dim/#4	1d#_	_	.	159.747	.
=93	=93	=93	=93	=93	=93	=93
1BMm	B:7	1d#_	_	.	161.472	.
=94	=94	=94	=94	=94	=94	=94
2D#M	D#:maj/b6	1d#_	_	.	163.197	newline
2BM	B:maj6	.	.	.	164.038	.
=95	=95	=95	=95	=95	=95	=95
1Cd	C:dim/7	1d#_	_	.	164.879	.
=96	=96	=96	=96	=96	=96	=96
1BM	B:maj	1d#]	_	.	166.561	.
=97	=97	=97	=97	=97	=97	=97
1BM	B:maj	1r	.	.	168.243	.
=98	=98	=98	=98	=98	=98	=98
1F#m	F#:1(b5,b7,3)	1r	.	.	169.925	newline
=99	=99	=99	=99	=99	=99	=99
1GMM	G:maj7	1r	.	.	171.646	.
=100	=100	=100	=100	=100	=100	=100
*M3/8	*M3/8	*M3/8	*	*	*M3/8	*M3/8
4.A-m	A-:min	4.r	.	.	173.366	.
=101	=101	=101	=101	=101	=101	=101
4.A-M	A-:maj	4.r	.	.	174.011	.
=102	=102	=102	=102	=102	=102	=102
*M4/4	*M4/4	*M4/4	*	*	*M4/4	*M4/4
1CM	C:1(b5,b7,3)	1r	.	.	174.656	newline
=103	=103	=103	=103	=103	=103	=103
1D-M	D-:maj	1r	.	.	176.38	.
=104	=104	=104	=104	=104	=104	=104
*M3/8	*M3/8	*M3/8	*	*	*M3/8	*M3/8
4.DMm	D:7(b9)	4.r	.	.	178.103	.
=105	=105	=105	=105	=105	=105	=105
4.DMm	D:7(b9)	4.r	.	.	.	.
=106	=106	=106	=106	=106	=106	=106
*M4/4	*M4/4	*M4/4	*	*	*M4/4	*M4/4
1E-dd	E-:1(b5,b7,3)	1r	.	.	179.396	newline
=107	=107	=107	=107	=107	=107	=107
1GM	G:1(b5,b7,3)	1r	.	.	181.087	.
=108	=108	=108	=108	=108	=108	=108
*M3/8	*M3/8	*M3/8	*	*	*M3/8	*M3/8
4.A-MM	A-:maj7	4.r	.	.	182.778	.
=109	=109	=109	=109	=109	=109	=109
4.Am	A:min	4.r	.	.	183.412	.
=110	=110	=110	=110	=110	=110	=110
*M4/4	*M4/4	*M4/4	*	*	*M4/4	*M4/4
1B-MM	B-:maj7	1r	.	.	184.046	newline
=111	=111	=111	=111	=111	=111	=111
1Am	A:1(b5,b7,3)	1r	.	.	185.744	.
=112	=112	=112	=112	=112	=112	=112
1B-MM	B-:maj7	1r	.	.	187.441	.
=113	=113	=113	=113	=113	=113	=113
1Am	A:1(b5,b7,3)	1r	.	.	189.139	.
=114	=114	=114	=114	=114	=114	=114
1B-MM	B-:maj7	1r	.	.	190.837	newline
=115	=115	=115	=115	=115	=115	=115
1Am	A:1(b5,b7,3)	1r	.	.	192.527	.
=116	=116	=116	=116	=116	=116	=116
1B-MM	B-:maj7	1r	.	.	194.217	.
=117	=117	=117	=117	=117	=117	=117
1Am	A:1(b5,b7,3)	2r	.	.	195.907	.
.	.	4.r	.	.	.	.
.	.	8f#	The	.	.	.
=118	=118	=118	=118	=118	=118	=118
*>Letter>A	*>Letter>A	*>Letter>A	*>Letter>A	*>Letter>A	*>Letter>A	*>Letter>A
*>Label>Chorus	*>Label>Chorus	*>Label>Chorus	*>Label>Chorus	*>Label>Chorus	*>Label>Chorus	*>Label>Chorus
1EM	E:maj	4g#	dream	.	197.598	newline
.	.	8g#	po-	.	.	.
.	.	4g#	-lice.	.	.	.
.	.	8g#	they	.	.	.
.	.	8g#	live	.	.	.
.	.	8g#	in-	.	.	.
=119	=119	=119	=119	=119	=119	=119
2BM	B:maj	16g#	-side	.	199.353	.
.	.	16a	_	.	.	.
.	.	8g#	of	.	.	.
.	.	8f#	my	.	.	.
.	.	4e	head.	A	.	.
2AM	A:maj	.	.	.	200.231	.
.	.	8r	.	.	.	.
.	.	8r	.	.	.	.
.	.	8f#	The	.	.	.
=120	=120	=120	=120	=120	=120	=120
1EM	E:maj	4g#	dream	.	201.109	.
.	.	8g#	po-	.	.	.
.	.	4g#	-lice.	.	.	.
.	.	8g#	they	.	.	.
.	.	8g#	come	.	.	.
.	.	8g#	to	.	.	.
=121	=121	=121	=121	=121	=121	=121
2BM	B:maj	16g#	me	.	202.864	.
.	.	16a	_	.	.	.
.	.	8g#	in	.	.	.
.	.	8f#	my	.	.	.
.	.	4e	bed.	A	.	.
2AM	A:maj	.	.	.	203.742	.
.	.	8r	.	.	.	.
.	.	8r	.	.	.	.
.	.	8f#	The	.	.	.
=122	=122	=122	=122	=122	=122	=122
1EM	E:maj	4g#	dream	.	204.62	newline
.	.	8g#	po-	.	.	.
.	.	4g#	-lice.	.	.	.
.	.	8g#	they're	.	.	.
.	.	8g#	co-	.	.	.
.	.	8g#	-ming	.	.	.
=123	=123	=123	=123	=123	=123	=123
2BM	B:maj	16a	to	.	206.359	.
.	.	16g#	_	.	.	.
.	.	8g#	a-	.	.	.
.	.	4f#	-rrest	A	.	.
2AM	A:maj	4e	me.	.	207.228	.
.	.	8r	.	.	.	.
.	.	8f#	The	.	.	.
=124	=124	=124	=124	=124	=124	=124
1EM	E:maj	4g#	dream	.	208.098	.
.	.	8g#	po-	.	.	.
.	.	4g#	-lice.	.	.	.
.	.	8r	.	.	.	.
.	.	4r	.	.	.	.
=125	=125	=125	=125	=125	=125	=125
2BM	B:maj	2r	.	.	209.837	.
2AM	A:maj	4.r	.	.	210.706	.
.	.	8f#	The	.	.	.
=126	=126	=126	=126	=126	=126	=126
*>Label>>Fadeout	*>Label>>Fadeout	*>Label>>Fadeout	*>Label>>Fadeout	*>Label>>Fadeout	*>Label>>Fadeout	*>Label>>Fadeout
1EM	E:maj	4g#	dream	.	211.576	newline
.	.	8g#	po-	.	.	.
.	.	4g#	-lice.	.	.	.
.	.	8r	.	.	.	.
.	.	4r	.	.	.	.
=127	=127	=127	=127	=127	=127	=127
2BM	B:maj	2r	.	.	213.306	.
2AM	A:maj	4.r	.	.	214.171	.
.	.	8f#	The	.	.	.
=128	=128	=128	=128	=128	=128	=128
1EM	E:maj	4g#	dream	.	215.036	.
.	.	8g#	po-	.	.	.
.	.	4g#	-lice.	.	.	.
.	.	8r	.	.	.	.
.	.	4r	.	.	.	.
=129	=129	=129	=129	=129	=129	=129
2BM	B:maj	2r	.	.	216.766	.
2AM	A:maj	4.r	.	.	217.631	.
.	.	8f#	The	.	.	.
=130	=130	=130	=130	=130	=130	=130
1EM	E:maj	4g#	dream	.	218.497	newline
.	.	8g#	po-	.	.	.
.	.	4g#	-lice.	.	.	.
.	.	8r	.	.	.	.
.	.	4r	.	.	.	.
=131	=131	=131	=131	=131	=131	=131
2BM	B:maj	2r	.	.	220.242	.
2AM	A:maj	4.r	.	.	221.115	.
.	.	8f#	The	.	.	.
=132	=132	=132	=132	=132	=132	=132
1EM	E:maj	4g#	dream	.	221.987	.
.	.	8g#	po-	.	.	.
.	.	4g#	-lice.	.	.	.
.	.	8r	.	.	.	.
.	.	4r	.	.	.	.
=133	=133	=133	=133	=133	=133	=133
2BM	B:maj	2r	.	.	223.733	.
2AM	A:maj	4.r	.	.	224.605	.
.	.	8f#	The	.	.	.
=134	=134	=134	=134	=134	=134	=134
1EM	E:maj	4g#	dream	.	225.478	newline
.	.	8g#	po-	.	.	.
.	.	4g#	-lice.	.	.	.
.	.	8r	.	.	.	.
.	.	4r	.	.	.	.
=135	=135	=135	=135	=135	=135	=135
2BM	B:maj	1r	.	.	227.016	.
2AM	A:maj	.	.	.	227.785	.
1r;	1r	r;	.	.	228.554	.
1r;	1r	r;	.	.	231.314	.
*-	*-	*-	*-	*-	*-	*-
!!!BillboardChartDate: 1979/11/10, 1979/11/17
!!!BillboardPeak: 26, 26
!!!BillboardWeeksOnChart: 10, 10
!!!COC: Cheap Trick
!!!ENC: Nathaniel Condit-Schultz
!!!EST: Awating manual error checking and editing.
!!!OTL: Dream Police
!!!RDF**chordsym: original McGill chord annotation + (implied pitch class set, with bass pitch in first position)
!!!RDF**harmony: **recip + pitch class of root + harmonic quality
!!!RDF**leadinstrument: original McGill primary instrumentation annotation
!!!RDF**phrase: newline = linebreak in original McGill transcription
!!!RDF**timestamp: McGill audio timestamp in seconds
!!!RDT: 2017/01/12/
!!!SampleActualRank: 29, 27
!!!SampleID#: 317, 323
!!!SampleTargetRank: 28, 27
!!!MBID: 3e4c7160-3fb9-4e04-88fa-64ad1e21071f